places/24/mail-folder-inbox.svg

<?xml version="1.0" encoding="UTF-8"?>
<svg id="a" width="24" height="24" version="1.1" xmlns="http://www.w3.org/2000/svg" xmlns:cc="http://creativecommons.org/ns#" xmlns:dc="http://purl.org/dc/elements/1.1/" xmlns:rdf="http://www.w3.org/1999/02/22-rdf-syntax-ns#">
	<metadata id="d">
		<rdf:RDF>
			<cc:Work rdf:about="">
				<dc:format>image/svg+xml</dc:format>
				<dc:type rdf:resource="http://purl.org/dc/dcmitype/StillImage"/>
				<dc:title/>
			</cc:Work>
		</rdf:RDF>
	</metadata>
	<defs id="f">
		<style id="current-color-scheme" type="text/css">.ColorScheme-Text {color:#090d11;}.ColorScheme-Background{color:#ffffff;}</style>
	</defs>
	<path id="e" class="ColorScheme-Text" d="m5 4v7h2v5h10v-5h2v-7z" style="fill-opacity:.75;fill:currentColor;opacity:.35"/>
	<path id="b" class="ColorScheme-Text" d="m3 12v8h18v-8h-3v5h-12v-5z" style="fill-opacity:.75;fill:currentColor"/>
	<path id="c" class="ColorScheme-Background" d="m4 3v7h1v-6h14v6h1v-7h-15zm-2 8v10h20v-10h-5v5h-10v-5zm1 1h3v5h12v-5h3v8h-18z" style="fill-opacity:.5;fill:currentColor"/>
</svg>

<?xml version="1.0" encoding="UTF-8" standalone="no"?>
<!-- Created with Inkscape (http://www.inkscape.org/) -->

<svg
   xmlns:dc="http://purl.org/dc/elements/1.1/"
   xmlns:cc="http://creativecommons.org/ns#"
   xmlns:rdf="http://www.w3.org/1999/02/22-rdf-syntax-ns#"
   xmlns:svg="http://www.w3.org/2000/svg"
   xmlns="http://www.w3.org/2000/svg"
   xmlns:sodipodi="http://sodipodi.sourceforge.net/DTD/sodipodi-0.dtd"
   xmlns:inkscape="http://www.inkscape.org/namespaces/inkscape"
   id="svg13094"
   height="24"
   width="24"
   version="1.1"
   inkscape:version="0.48.3.1 r9886"
   sodipodi:docname="mail-folder-inbox.svg">
  <defs
     id="defs3009" />
  <sodipodi:namedview
     pagecolor="#ffffff"
     bordercolor="#666666"
     borderopacity="1"
     objecttolerance="10"
     gridtolerance="10"
     guidetolerance="10"
     inkscape:pageopacity="0"
     inkscape:pageshadow="2"
     inkscape:window-width="1920"
     inkscape:window-height="1033"
     id="namedview3007"
     showgrid="true"
     inkscape:zoom="29.5"
     inkscape:cx="10.652914"
     inkscape:cy="12.159599"
     inkscape:window-x="-10"
     inkscape:window-y="25"
     inkscape:window-maximized="1"
     inkscape:current-layer="svg13094"
     inkscape:snap-bbox="true"
     inkscape:bbox-paths="true"
     inkscape:bbox-nodes="true"
     inkscape:snap-bbox-edge-midpoints="true"
     inkscape:snap-bbox-midpoints="true"
     inkscape:object-paths="true"
     inkscape:snap-intersection-paths="true"
     inkscape:object-nodes="true"
     inkscape:snap-smooth-nodes="true"
     inkscape:snap-midpoints="true"
     inkscape:snap-object-midpoints="true"
     inkscape:snap-center="true">
    <inkscape:grid
       type="xygrid"
       id="grid2982"
       empspacing="5"
       visible="true"
       enabled="true"
       snapvisiblegridlinesonly="true" />
  </sodipodi:namedview>
  <metadata
     id="metadata13099">
    <rdf:RDF>
      <cc:Work
         rdf:about="">
        <dc:format>image/svg+xml</dc:format>
        <dc:type
           rdf:resource="http://purl.org/dc/dcmitype/StillImage" />
        <dc:title />
      </cc:Work>
    </rdf:RDF>
  </metadata>
  <path
     sodipodi:nodetypes="ccccccccc"
     inkscape:connector-curvature="0"
     id="path2987"
     d="M 5,3.9999999 5,11 l 2,0 0,5 10,0 0,-5 2,0 0,-7.0000001 z"
     style="color:#000000;fill:#414956;fill-opacity:0.15;fill-rule:nonzero;stroke:none;stroke-width:4;marker:none;visibility:visible;display:inline;overflow:visible;enable-background:accumulate" />
  <path
     sodipodi:nodetypes="ccccccccccc"
     inkscape:connector-curvature="0"
     style="color:#000000;fill:#27303a;fill-opacity:0.7532808199999999682;fill-rule:nonzero;stroke:none;stroke-width:4;marker:none;visibility:visible;display:inline;overflow:visible;enable-background:accumulate"
     d="m 3,12 0,8 2,0 14,0 2,0 0,-8 -3,0 0,5 -12,0 0,-5 z"
     id="path2989" />
  <path
     style="color:#000000;fill:#f1f3f5;fill-opacity:0.90288714000000003;fill-rule:nonzero;stroke:none;stroke-width:2;marker:none;visibility:visible;display:inline;overflow:visible;enable-background:accumulate"
     d="M 4 3 L 4 10 L 5 10 L 5 4 L 19 4 L 19 10 L 20 10 L 20 4 L 20 3 L 5 3 L 4 3 z M 2 11 L 2 12 L 2 21 L 3 21 L 22 21 L 22 20 L 22 12 L 22 11 L 18 11 L 17 11 L 17 16 L 7 16 L 7 12 L 7 11 L 2 11 z M 3 12 L 6 12 L 6 17 L 7 17 L 17 17 L 18 17 L 18 12 L 21 12 L 21 20 L 3 20 L 3 12 z "
     id="rect2991" />
</svg>
